X: 22
T:Green Mountain, The
M:C
L:1/8
R:Reel
K:D
AF ~F2 AFEF | DF ~F2 ABde | ~f2df efdB | defd efdB |
AF ~F2 AFEF | DF ~F2 ABde | ~f2 df efdB | 1 AFEF D2 dB :|2 AFEF D2 de ||
faaf bfaf | defd ~e2 de | f2 df efdB | defd efde |
faaf bfaf | defd ~e2 de | ~f2 df efdB |1 AFEF D2 de :|2 AFEF D2 dB |

